front/public/static/landing/logos/gray/causaly.svg

<svg fill="none" height="300" viewBox="0 0 600 300" width="600" xmlns="http://www.w3.org/2000/svg" xmlns:xlink="http://www.w3.org/1999/xlink"><clipPath id="a"><path d="m73 104h454v91h-454z"/></clipPath><g clip-path="url(#a)" fill="#364153"><path d="m416.095 123.857c7.724-.499 14.786 1.147 19.404 7.945.115-2.285.261-4.568.435-6.849 3.973-.031 7.947-.022 11.92.029l.002 49.063c-3.912.034-7.825.035-11.737.004l-.667-7.185c-.607.988-.938 1.521-1.676 2.402-.049.06-.096.121-.145.181-8.131 8.51-23.683 7.598-32.313.52-5.297-4.333-7.691-10.431-8.409-17.029-1.314-12.044 3.876-23.604 15.834-27.579 2.594-.863 4.61-1.232 7.352-1.502zm6.648 40.595c8.201-1.382 13.749-9.153 12.418-17.392-1.334-8.239-9.046-13.849-17.262-12.556-8.277 1.303-13.919 9.116-12.577 17.418 1.343 8.301 9.158 13.922 17.421 12.53z"/><path d="m249.963 123.857c7.867-.417 14.901 1.032 19.509 8.144.068-2.356.177-4.709.334-7.061l11.949-.008-.019 49.122c-3.907.029-7.813.026-11.722-.009-.249-2.467-.435-4.94-.552-7.417-.941 1.614-1.357 2.135-2.549 3.516-3.299 2.967-7.833 4.882-12.185 5.28-14.51 1.199-26.47-7.078-27.895-22.087-1.545-16.283 6.583-27.77 23.13-29.48zm6.72 40.592c8.183-1.395 13.715-9.152 12.392-17.377-1.324-8.226-9.009-13.84-17.213-12.578-8.299 1.277-13.971 9.098-12.632 17.416 1.339 8.319 9.175 13.949 17.453 12.539z"/><path d="m512.979 124.943c4.57-.052 9.28.001 13.86.002-1.119 1.965-3.353 7.391-4.387 9.722l-9.216 20.676c-5.427 12.879-11.75 26.426-17.459 39.245-4.354.131-9.361.023-13.759.003 3.057-6.238 6.686-14.849 9.463-21.319-6.555-16.143-13.657-32.186-20.232-48.326 4.739-.08 9.734-.005 14.492-.007l7.754 21.324c1.587 4.397 3.508 9.59 4.847 14.05 4.218-11.785 9.662-23.879 14.637-35.37z"/><path d="m290.186 124.921 12.538.021-.013 17.64c-.008 3.187.064 6.379.072 9.557.026 11.148 13.879 15.586 21.289 8.065 1.78-1.835 3.02-4.129 3.582-6.627.697-2.998.472-8.618.472-11.897l-.003-16.741 12.373.01c.154 5.546.014 11.786.014 17.386v31.823c-3.733.059-7.467.058-11.2-.005-.303-2.251-.539-4.595-.796-6.858-4.839 4.833-9.884 7.423-16.744 7.562-8.908.181-16.222-4.337-19.542-12.733-2.581-6.526-2.012-13.074-2.008-19.947.024-5.752.013-11.504-.034-17.256z"/><path d="m364.502 123.667c.034-.004.068-.009.102-.014 9.127-.452 15.562.61 22.6 6.324-2.23 2.64-4.64 5.321-6.921 7.933-3.477-2.99-7.161-4.227-11.64-4.352-3.466-.179-10.445.309-10.355 5.145.097 5.087 8.992 5.13 12.482 5.448 1.645.138 3.281.373 4.899.703 8.16 1.665 14.114 5.802 13.919 15.003-.123 9.019-7.762 14.191-15.866 15.419-3.228.489-5.788.536-9.067.42-8.554-.535-14.176-2.782-20.357-8.697 2.029-2.868 4.084-5.715 6.168-8.543.34.328.694.64 1.061.938 4.74 3.874 12.285 6.187 18.4 5.745 3.163-.229 8.066-2.843 7.306-6.54-1.095-5.311-11.512-4.155-15.62-5.208-3.969-1.016-7.29-1.663-10.604-4.285-5.705-4.188-6.607-12.936-2.179-18.411 3.816-4.716 9.867-6.355 15.672-7.028z"/><path d="m109.378 114.558c.192-.556.322-1.261.705-1.581 5.087.043 10.173.055 15.26.035 1.127 0 5.819-.063 6.557.095.245.399.216.557.254 1.041l.361.138c1.469 5.853 5.081 8.121 9.378 11.903 4.207 3.703 10.036 7.442 9.594 13.853-.476 6.893-7.586 10.566-12.057 14.854-4.137 3.894-6.583 5.557-7.008 11.606l-23.209-.005c.462-10.249 10.171-13.928 17.63-18.711 2.019-1.288 4.644-2.858 5.939-4.926 4.854-7.752-7.879-12.428-12.706-15.76-5.273-3.64-9.048-5.806-10.698-12.542z"/><path d="m206.504 123.668c7.868-.409 12.729.314 19.19 5.031-3.357 3.174-4.748 4.955-6.523 9.266-5.177-3.411-11.398-4.299-16.934-1.053-3.225 1.9-5.552 5.023-6.455 8.665-.344 1.336-.496 2.569-.497 3.944-.012 13.603 13.991 17.981 24.392 11.495 1.129 2.202 1.779 3.407 3.326 5.318 1.085 1.337 2.506 2.533 3.818 3.63-15.493 11.628-41.576 4.946-43.762-16.189-1.749-16.915 6.606-28.045 23.445-30.107z"/><path d="m455.001 104.384c4.126-.026 8.252-.023 12.376.009.134 9.677.006 19.682.004 29.383l-.012 40.261c-4.118.034-8.234.042-12.353.024-.14-7.745.008-15.959.008-23.738z"/><path d="m109.215 112.405 23.18.012c.041.532.131 1.369.12 1.869l-.361-.137c-.037-.485-.009-.643-.254-1.042-.737-.158-5.429-.095-6.556-.095-5.087.02-10.174.008-15.261-.035-.383.32-.513 1.025-.704 1.581z"/><path d="m92.1699 132.532 23.2061.013c-.507 15.539-24.3219 17.204-24.5918 26.908-.0576 1.678.5598 3.308 1.713 4.524 6.3851 6.69 22.8428 10.2 22.8758 22.643-7.708.009-15.545-.061-23.2413.03-.2225-10.263-12.899-14.037-17.5841-21.941-.7924-1.337-1.1472-2.748-1.5476-4.227v-1.857c.1596-.551.3164-1.124.4982-1.666 3.3581-10.014 18.228-12.925 18.6717-24.427z"/></g></svg>

<svg width="600" height="300" viewBox="0 0 600 300" fill="none" xmlns="http://www.w3.org/2000/svg">
<g clip-path="url(#clip0_3666_2831)">
<path d="M416.095 123.857C423.819 123.358 430.881 125.004 435.499 131.802C435.614 129.517 435.76 127.234 435.934 124.953C439.907 124.922 443.881 124.931 447.854 124.982L447.856 174.045C443.944 174.079 440.031 174.08 436.119 174.049L435.452 166.864C434.845 167.852 434.514 168.385 433.776 169.266C433.727 169.326 433.68 169.387 433.631 169.447C425.5 177.957 409.948 177.045 401.318 169.967C396.021 165.634 393.627 159.536 392.909 152.938C391.595 140.894 396.785 129.334 408.743 125.359C411.337 124.496 413.353 124.127 416.095 123.857ZM422.743 164.452C430.944 163.07 436.492 155.299 435.161 147.06C433.827 138.821 426.115 133.211 417.899 134.504C409.622 135.807 403.98 143.62 405.322 151.922C406.665 160.223 414.48 165.844 422.743 164.452Z" fill="#364153"/>
<path d="M249.963 123.857C257.83 123.44 264.864 124.889 269.472 132.001C269.54 129.645 269.649 127.292 269.806 124.94L281.755 124.932L281.736 174.054C277.829 174.083 273.923 174.08 270.014 174.045C269.765 171.578 269.579 169.105 269.462 166.628C268.521 168.242 268.105 168.763 266.913 170.144C263.614 173.111 259.08 175.026 254.728 175.424C240.218 176.623 228.258 168.346 226.833 153.337C225.288 137.054 233.416 125.567 249.963 123.857ZM256.683 164.449C264.866 163.054 270.398 155.297 269.075 147.072C267.751 138.846 260.066 133.232 251.862 134.494C243.563 135.771 237.891 143.592 239.23 151.91C240.569 160.229 248.405 165.859 256.683 164.449Z" fill="#364153"/>
<path d="M512.979 124.943C517.549 124.891 522.259 124.944 526.839 124.945C525.72 126.91 523.486 132.336 522.452 134.667L513.236 155.343C507.809 168.222 501.486 181.769 495.777 194.588C491.423 194.719 486.416 194.611 482.018 194.591C485.075 188.353 488.704 179.742 491.481 173.272C484.926 157.129 477.824 141.086 471.249 124.946C475.988 124.866 480.983 124.941 485.741 124.939L493.495 146.263C495.082 150.66 497.003 155.853 498.342 160.313C502.56 148.528 508.004 136.434 512.979 124.943Z" fill="#364153"/>
<path d="M290.186 124.921L302.724 124.942L302.711 142.582C302.703 145.769 302.775 148.961 302.783 152.139C302.809 163.287 316.662 167.725 324.072 160.204C325.852 158.369 327.092 156.075 327.654 153.577C328.351 150.579 328.126 144.959 328.126 141.68L328.123 124.939L340.496 124.949C340.65 130.495 340.51 136.735 340.51 142.335V174.158C336.777 174.217 333.043 174.216 329.31 174.153C329.007 171.902 328.771 169.558 328.514 167.295C323.675 172.128 318.63 174.718 311.77 174.857C302.862 175.038 295.548 170.52 292.228 162.124C289.647 155.598 290.216 149.05 290.22 142.177C290.244 136.425 290.233 130.673 290.186 124.921Z" fill="#364153"/>
<path d="M364.502 123.667C364.536 123.663 364.57 123.658 364.604 123.653C373.731 123.201 380.166 124.263 387.204 129.977C384.974 132.617 382.564 135.298 380.283 137.91C376.806 134.92 373.122 133.683 368.643 133.558C365.177 133.379 358.198 133.867 358.288 138.703C358.385 143.79 367.28 143.833 370.77 144.151C372.415 144.289 374.051 144.524 375.669 144.854C383.829 146.519 389.783 150.656 389.588 159.857C389.465 168.876 381.826 174.048 373.722 175.276C370.494 175.765 367.934 175.812 364.655 175.696C356.101 175.161 350.479 172.914 344.298 166.999C346.327 164.131 348.382 161.284 350.466 158.456C350.806 158.784 351.16 159.096 351.527 159.394C356.267 163.268 363.812 165.581 369.927 165.139C373.09 164.91 377.993 162.296 377.233 158.599C376.138 153.288 365.721 154.444 361.613 153.391C357.644 152.375 354.323 151.728 351.009 149.106C345.304 144.918 344.402 136.17 348.83 130.695C352.646 125.979 358.697 124.34 364.502 123.667Z" fill="#364153"/>
<path d="M109.378 114.558C109.57 114.002 109.7 113.297 110.083 112.977C115.17 113.02 120.256 113.032 125.343 113.012C126.47 113.012 131.162 112.949 131.9 113.107C132.145 113.506 132.116 113.664 132.154 114.148L132.515 114.286C133.984 120.139 137.596 122.407 141.893 126.189C146.1 129.892 151.929 133.631 151.487 140.042C151.011 146.935 143.901 150.608 139.43 154.896C135.293 158.79 132.847 160.453 132.422 166.502L109.213 166.497C109.675 156.248 119.384 152.569 126.843 147.786C128.862 146.498 131.487 144.928 132.782 142.86C137.636 135.108 124.903 130.432 120.076 127.1C114.803 123.46 111.028 121.294 109.378 114.558Z" fill="#364153"/>
<path d="M206.504 123.668C214.372 123.259 219.233 123.982 225.694 128.699C222.337 131.873 220.946 133.654 219.171 137.965C213.994 134.554 207.773 133.666 202.237 136.912C199.012 138.812 196.685 141.935 195.782 145.577C195.438 146.913 195.286 148.146 195.285 149.521C195.273 163.124 209.276 167.502 219.677 161.016C220.806 163.218 221.456 164.423 223.003 166.334C224.088 167.671 225.509 168.867 226.821 169.964C211.328 181.592 185.245 174.91 183.059 153.775C181.31 136.86 189.665 125.73 206.504 123.668Z" fill="#364153"/>
<path d="M455.001 104.384C459.127 104.358 463.253 104.361 467.377 104.393C467.511 114.07 467.383 124.075 467.381 133.776L467.369 174.037C463.251 174.071 459.135 174.079 455.016 174.061C454.876 166.316 455.024 158.102 455.024 150.323L455.001 104.384Z" fill="#364153"/>
<path d="M109.215 112.405L132.395 112.417C132.436 112.949 132.526 113.786 132.515 114.286L132.154 114.149C132.117 113.664 132.145 113.506 131.9 113.107C131.163 112.949 126.471 113.012 125.344 113.012C120.257 113.032 115.17 113.02 110.083 112.977C109.7 113.297 109.57 114.002 109.379 114.558L109.215 112.405Z" fill="#364153"/>
<path d="M92.1699 132.532L115.376 132.545C114.869 148.084 91.0541 149.749 90.7842 159.453C90.7266 161.131 91.344 162.761 92.4972 163.977C98.8823 170.667 115.34 174.177 115.373 186.62C107.665 186.629 99.828 186.559 92.1317 186.65C91.9092 176.387 79.2327 172.613 74.5476 164.709C73.7552 163.372 73.4004 161.961 73 160.482V158.625C73.1596 158.074 73.3164 157.501 73.4982 156.959C76.8563 146.945 91.7262 144.034 92.1699 132.532Z" fill="#364153"/>
</g>
<defs>
<clipPath id="clip0_3666_2831">
<rect width="454" height="91" fill="white" transform="translate(73 104)"/>
</clipPath>
</defs>
</svg>
